synths/sYFI.svg

<svg width="42" height="42" viewBox="0 0 42 42" fill="none" xmlns="http://www.w3.org/2000/svg">
<g clip-path="url(#clip0_7277_57877)">
<mask id="mask0_7277_57877" style="mask-type:alpha" maskUnits="userSpaceOnUse" x="0" y="0" width="42" height="42">
<circle cx="21" cy="21" r="21" transform="matrix(-1 0 0 1 42 0)" fill="url(#paint0_linear_7277_57877)"/>
</mask>
<g mask="url(#mask0_7277_57877)">
<circle cx="21" cy="21" r="21" transform="matrix(-1 0 0 1 42 0)" fill="#34EDB3"/>
<circle cx="18.2" cy="18.2" r="18.2" transform="matrix(-1 0 0 1 39.2 2.80005)" fill="white"/>
</g>
<circle cx="16.1" cy="16.1" r="16.1" transform="matrix(-1 0 0 1 37.1 4.90002)" fill="#0B0B22"/>
<path fill-rule="evenodd" clip-rule="evenodd" d="M21.1 5C29.9904 5 37.2 12.2096 37.2 21.1C37.2 29.9904 29.9904 37.2 21.1 37.2C12.2096 37.2 5 29.9904 5 21.1C5 12.2096 12.2096 5 21.1 5Z" fill="#006AE3"/>
<path d="M27.862 18.9555L23.3572 20.1501L22.3525 15.4747L23.6921 15.172L24.2201 17.3873C24.2201 17.3873 25.4373 15.3909 23.8144 13.3237C22.8581 12.2611 22.4041 12.216 21.3318 12.0486C20.3883 11.9133 18.1955 12.2321 17.5419 14.792C17.2649 16.4407 17.5773 17.661 19.7025 19.2582L19.5833 21.0356C19.5833 21.0356 17.2102 19.3644 16.5984 18.1923C16.1251 17.265 15.3136 15.4328 16.7787 12.8826C17.5676 11.6074 19.1229 10.3838 21.8631 10.5126C23.2413 10.5706 26.6062 12.2547 26.0845 16.1895C25.9944 16.9269 25.6112 17.909 25.6112 17.909L27.4595 17.4968L27.862 18.9555Z" fill="white"/>
<path d="M25.2893 29.4366C24.4649 30.6892 22.8775 31.8709 20.1437 31.6712C18.7655 31.5779 15.4489 29.8036 16.0736 25.8849C16.1831 25.1508 16.592 24.1815 16.592 24.1815L14.7341 24.5422L14.3702 23.0771L18.9072 22.0016L19.7895 26.7028L18.4403 26.9701L17.9702 24.7386C17.9702 24.7386 16.7015 26.6996 18.2664 28.8119C19.1938 29.9003 19.6446 29.955 20.7169 30.1514C21.6539 30.3124 23.8564 30.0484 24.5776 27.5078C24.8964 25.8688 24.6163 24.6388 22.5362 22.9837L22.7036 21.2095C22.7036 21.2095 25.0317 22.9418 25.6113 24.13C26.0556 25.0735 26.8188 26.9282 25.2893 29.4366V29.4366Z" fill="white"/>
</g>
<defs>
<linearGradient id="paint0_linear_7277_57877" x1="21" y1="0" x2="21" y2="61.4091" gradientUnits="userSpaceOnUse">
<stop stop-color="#08021E"/>
<stop offset="1" stop-color="#1F0777"/>
</linearGradient>
<clipPath id="clip0_7277_57877">
<rect width="42" height="42" fill="white"/>
</clipPath>
</defs>
</svg>

<svg xmlns="http://www.w3.org/2000/svg" width="42" height="42" fill="none"><g clip-path="url(#a)"><mask id="c" width="42" height="42" x="0" y="0" maskUnits="userSpaceOnUse" style="mask-type:alpha"><circle cx="21" cy="21" r="21" fill="url(#b)" transform="matrix(-1 0 0 1 42 0)"/></mask><g mask="url(#c)"><circle cx="21" cy="21" r="21" fill="#34EDB3" transform="matrix(-1 0 0 1 42 0)"/><circle cx="18.2" cy="18.2" r="18.2" fill="#fff" transform="matrix(-1 0 0 1 39.2 2.8)"/></g><circle cx="16.1" cy="16.1" r="16.1" fill="#0B0B22" transform="matrix(-1 0 0 1 37.1 4.9)"/><path fill="#006AE3" fill-rule="evenodd" d="M21.1 5c8.89 0 16.1 7.21 16.1 16.1s-7.21 16.1-16.1 16.1S5 29.99 5 21.1 12.21 5 21.1 5Z" clip-rule="evenodd"/><path fill="#fff" d="m27.862 18.956-4.505 1.194-1.005-4.675 1.34-.303.528 2.215s1.217-1.996-.406-4.063c-.956-1.063-1.41-1.108-2.482-1.275-.944-.136-3.137.183-3.79 2.743-.277 1.649.035 2.869 2.16 4.466l-.119 1.778s-2.373-1.672-2.985-2.844c-.473-.927-1.284-2.76.18-5.31.79-1.275 2.345-2.498 5.085-2.37 1.378.059 4.743 1.743 4.221 5.677-.09.738-.473 1.72-.473 1.72l1.848-.412.403 1.459ZM25.29 29.437c-.825 1.252-2.412 2.434-5.146 2.234-1.378-.093-4.695-1.867-4.07-5.786.11-.734.518-1.704.518-1.704l-1.858.361-.364-1.465 4.537-1.075.883 4.7-1.35.268-.47-2.231s-1.268 1.96.296 4.073c.928 1.088 1.379 1.143 2.45 1.34.938.16 3.14-.104 3.862-2.644.318-1.64.038-2.87-2.042-4.524l.168-1.775s2.328 1.733 2.907 2.921c.445.944 1.208 2.798-.322 5.307Z"/></g><defs><linearGradient id="b" x1="21" x2="21" y1="0" y2="61.409" gradientUnits="userSpaceOnUse"><stop stop-color="#08021E"/><stop offset="1" stop-color="#1F0777"/></linearGradient><clipPath id="a"><path fill="#fff" d="M0 0h42v42H0z"/></clipPath></defs></svg>
